cursors/src/svg/bottom_left_corner.svg

<?xml version="1.0" encoding="UTF-8" standalone="no"?>
<svg
   xmlns:dc="http://purl.org/dc/elements/1.1/"
   xmlns:cc="http://creativecommons.org/ns#"
   xmlns:rdf="http://www.w3.org/1999/02/22-rdf-syntax-ns#"
   xmlns:svg="http://www.w3.org/2000/svg"
   xmlns="http://www.w3.org/2000/svg"
   xmlns:sodipodi="http://sodipodi.sourceforge.net/DTD/sodipodi-0.dtd"
   xmlns:inkscape="http://www.inkscape.org/namespaces/inkscape"
   width="32"
   height="32"
   version="1.1"
   viewBox="0 0 32 32"
   id="svg17"
   sodipodi:docname="bottom_left_corner.svg"
   inkscape:version="0.92.4 5da689c313, 2019-01-14">
  <metadata
     id="metadata21">
    <rdf:RDF>
      <cc:Work
         rdf:about="">
        <dc:format>image/svg+xml</dc:format>
        <dc:type
           rdf:resource="http://purl.org/dc/dcmitype/StillImage" />
      </cc:Work>
    </rdf:RDF>
  </metadata>
  <sodipodi:namedview
     pagecolor="#ffffff"
     bordercolor="#666666"
     borderopacity="1"
     objecttolerance="10"
     gridtolerance="10"
     guidetolerance="10"
     inkscape:pageopacity="0"
     inkscape:pageshadow="2"
     inkscape:window-width="1366"
     inkscape:window-height="705"
     id="namedview19"
     showgrid="true"
     inkscape:snap-bbox="true"
     inkscape:snap-bbox-edge-midpoints="true"
     inkscape:snap-bbox-midpoints="false"
     inkscape:bbox-nodes="true"
     inkscape:zoom="14.836426"
     inkscape:cx="15.182924"
     inkscape:cy="6.3389877"
     inkscape:window-x="0"
     inkscape:window-y="34"
     inkscape:window-maximized="1"
     inkscape:current-layer="svg17">
    <inkscape:grid
       type="xygrid"
       id="grid833" />
  </sodipodi:namedview>
  <defs
     id="defs5">
    <filter
       id="a"
       x="-.12"
       y="-.12"
       width="1.24"
       height="1.24"
       color-interpolation-filters="sRGB">
      <feGaussianBlur
         stdDeviation="0.7060545"
         id="feGaussianBlur2" />
    </filter>
    <filter
       inkscape:collect="always"
       style="color-interpolation-filters:sRGB"
       id="filter895"
       x="-0.12"
       width="1.24"
       y="-0.12"
       height="1.24">
      <feGaussianBlur
         inkscape:collect="always"
         stdDeviation="0.9"
         id="feGaussianBlur897" />
    </filter>
  </defs>
  <path
     inkscape:connector-curvature="0"
     id="path849"
     d="m 19,10.589844 c -1.64501,0 -3,1.35499 -3,3 0,1.64501 1.35499,3 3,3 1.64501,0 3,-1.35499 3,-3 0,-1.64501 -1.35499,-3 -3,-3 z m -7.181641,0.685547 a 1.0001,1.0001 0 0 0 -0.960937,0.757812 L 8.0292969,23.347656 a 1.0001,1.0001 0 0 0 1.2128906,1.212891 L 20.556641,21.732422 a 1.0001,1.0001 0 0 0 0.753906,-1.060547 L 21.056641,17.871094 A 1.0001,1.0001 0 0 0 19.96875,16.964844 C 18.786465,17.072853 17.618979,16.650573 16.779297,15.8125 15.941494,14.972546 15.520225,13.804092 15.628906,12.621094 a 1.0001,1.0001 0 0 0 -0.90625,-1.087891 l -2.804687,-0.253906 a 1.0001,1.0001 0 0 0 -0.09961,-0.0039 z M 19,12.589844 c 0.564129,0 1,0.435871 1,1 0,0.564129 -0.435871,1 -1,1 -0.564129,0 -1,-0.435871 -1,-1 0,-0.564129 0.435871,-1 1,-1 z m -6.408203,0.759766 1.175781,0.105468 c 0.114918,1.403003 0.583846,2.758987 1.59375,3.771485 a 1.0001,1.0001 0 0 0 0.002,0 c 1.012015,1.010927 2.367701,1.483743 3.771485,1.599609 L 19.242188,20 10.375,22.214844 Z M 5,16.589844 a 1.0001,1.0001 0 0 0 -1,1 v 9 1 a 1.0001,1.0001 0 0 0 1,1 h 1 9 a 1.0001,1.0001 0 0 0 1,-1 v -1 a 1.0001,1.0001 0 0 0 -1,-1 H 7 v -8 a 1.0001,1.0001 0 0 0 -1,-1 z"
     style="color:#000000;font-style:normal;font-variant:normal;font-weight:normal;font-stretch:normal;font-size:medium;line-height:normal;font-family:sans-serif;font-variant-ligatures:normal;font-variant-position:normal;font-variant-caps:normal;font-variant-numeric:normal;font-variant-alternates:normal;font-feature-settings:normal;text-indent:0;text-align:start;text-decoration:none;text-decoration-line:none;text-decoration-style:solid;text-decoration-color:#000000;letter-spacing:normal;word-spacing:normal;text-transform:none;writing-mode:lr-tb;direction:ltr;text-orientation:mixed;dominant-baseline:auto;baseline-shift:baseline;text-anchor:start;white-space:normal;shape-padding:0;clip-rule:nonzero;display:inline;overflow:visible;visibility:visible;opacity:0.35;isolation:auto;mix-blend-mode:normal;color-interpolation:sRGB;color-interpolation-filters:linearRGB;solid-color:#000000;solid-opacity:1;vector-effect:none;fill:#000000;fill-opacity:1;fill-rule:nonzero;stroke:none;stroke-width:2;stroke-linecap:round;stroke-linejoin:round;stroke-miterlimit:4;stroke-dasharray:none;stroke-dashoffset:0;stroke-opacity:1;paint-order:stroke fill markers;filter:url(#filter895);color-rendering:auto;image-rendering:auto;shape-rendering:auto;text-rendering:auto;enable-background:accumulate" />
  <path
     style="color:#000000;font-style:normal;font-variant:normal;font-weight:normal;font-stretch:normal;font-size:medium;line-height:normal;font-family:sans-serif;font-variant-ligatures:normal;font-variant-position:normal;font-variant-caps:normal;font-variant-numeric:normal;font-variant-alternates:normal;font-feature-settings:normal;text-indent:0;text-align:start;text-decoration:none;text-decoration-line:none;text-decoration-style:solid;text-decoration-color:#000000;letter-spacing:normal;word-spacing:normal;text-transform:none;writing-mode:lr-tb;direction:ltr;text-orientation:mixed;dominant-baseline:auto;baseline-shift:baseline;text-anchor:start;white-space:normal;shape-padding:0;clip-rule:nonzero;display:inline;overflow:visible;visibility:visible;opacity:1;isolation:auto;mix-blend-mode:normal;color-interpolation:sRGB;color-interpolation-filters:linearRGB;solid-color:#000000;solid-opacity:1;vector-effect:none;fill:#ffffff;fill-opacity:1;fill-rule:nonzero;stroke:none;stroke-width:2;stroke-linecap:round;stroke-linejoin:round;stroke-miterlimit:4;stroke-dasharray:none;stroke-dashoffset:0;stroke-opacity:1;paint-order:stroke fill markers;color-rendering:auto;image-rendering:auto;shape-rendering:auto;text-rendering:auto;enable-background:accumulate"
     d="m 19,10 c -1.64501,0 -3,1.35499 -3,3 0,1.64501 1.35499,3 3,3 1.64501,0 3,-1.35499 3,-3 0,-1.64501 -1.35499,-3 -3,-3 z m -7.181641,0.685547 a 1.0001,1.0001 0 0 0 -0.960937,0.757812 L 8.0292969,22.757812 a 1.0001,1.0001 0 0 0 1.2128906,1.212891 L 20.556641,21.142578 a 1.0001,1.0001 0 0 0 0.753906,-1.060547 L 21.056641,17.28125 A 1.0001,1.0001 0 0 0 19.96875,16.375 c -1.182285,0.108009 -2.349771,-0.314271 -3.189453,-1.152344 -0.837803,-0.839954 -1.259072,-2.008408 -1.150391,-3.191406 a 1.0001,1.0001 0 0 0 -0.90625,-1.087891 l -2.804687,-0.253906 a 1.0001,1.0001 0 0 0 -0.09961,-0.0039 z M 19,12 c 0.564129,0 1,0.435871 1,1 0,0.564129 -0.435871,1 -1,1 -0.564129,0 -1,-0.435871 -1,-1 0,-0.564129 0.435871,-1 1,-1 z m -6.408203,0.759766 1.175781,0.105468 c 0.114918,1.403003 0.583846,2.758987 1.59375,3.771485 a 1.0001,1.0001 0 0 0 0.002,0 c 1.012015,1.010927 2.367701,1.483743 3.771485,1.599609 L 19.242188,19.410156 10.375,21.625 Z M 5,16 a 1.0001,1.0001 0 0 0 -1,1 v 9 1 a 1.0001,1.0001 0 0 0 1,1 h 1 9 a 1.0001,1.0001 0 0 0 1,-1 V 26 A 1.0001,1.0001 0 0 0 15,25 H 7 V 17 A 1.0001,1.0001 0 0 0 6,16 Z"
     id="path840"
     inkscape:connector-curvature="0" />
  <path
     style="opacity:1;fill:#333333;fill-opacity:1;stroke:none;stroke-width:1.99273682;stroke-linecap:round;stroke-linejoin:round;stroke-miterlimit:4;stroke-dasharray:none;stroke-opacity:1;paint-order:stroke fill markers"
     d="m 5,17 v 9 1 h 1 9 V 26 H 6 v -9 z"
     id="rect835"
     inkscape:connector-curvature="0"
     sodipodi:nodetypes="ccccccccc" />
  <path
     inkscape:connector-curvature="0"
     style="opacity:1;fill:#333333;fill-opacity:1;stroke:none;stroke-width:1.99273682;stroke-linecap:round;stroke-linejoin:round;stroke-miterlimit:4;stroke-dasharray:none;stroke-opacity:1;paint-order:stroke fill markers"
     d="M 11.828428,11.686291 9,23 20.313709,20.171572 20.059592,17.370767 c -1.477583,0.134986 -2.9388,-0.393238 -3.988524,-1.441835 -1.047559,-1.050247 -1.574779,-2.511371 -1.439073,-3.988524 z"
     id="rect835-6"
     sodipodi:nodetypes="ccccccc" />
  <circle
     r="2"
     cy="13"
     cx="19"
     id="circle839"
     style="opacity:1;fill:#0078d4;fill-opacity:1;stroke:none;stroke-width:1;stroke-linecap:round;stroke-linejoin:round;stroke-miterlimit:4;stroke-dasharray:none;stroke-opacity:1;paint-order:stroke fill markers" />
</svg>

<?xml version="1.0" encoding="UTF-8" standalone="no"?>
<!DOCTYPE svg PUBLIC "-//W3C//DTD SVG 1.1//EN" "http://www.w3.org/Graphics/SVG/1.1/DTD/svg11.dtd">
<svg width="100%" height="100%" viewBox="0 0 32 32" version="1.1" xmlns="http://www.w3.org/2000/svg" xmlns:xlink="http://www.w3.org/1999/xlink" xml:space="preserve" xmlns:serif="http://www.serif.com/" style="fill-rule:evenodd;clip-rule:evenodd;stroke-linejoin:round;stroke-miterlimit:2;">
    <use id="path849" xlink:href="#_Image1" x="1.3" y="7.89" width="24px" height="24px"/>
    <path id="path840" d="M19,10C17.355,10 16,11.355 16,13C16,14.645 17.355,16 19,16C20.645,16 22,14.645 22,13C22,11.355 20.645,10 19,10ZM11.818,10.686C11.364,10.69 10.967,11.003 10.857,11.443L8.029,22.758C8.009,22.837 7.999,22.919 7.999,23C7.999,23.549 8.451,24.001 9,24.001C9.081,24.001 9.163,23.991 9.242,23.971L20.557,21.143C21.033,21.024 21.355,20.571 21.311,20.082L21.057,17.281C21.01,16.768 20.575,16.371 20.061,16.371C20.03,16.371 19.999,16.372 19.969,16.375C18.786,16.483 17.619,16.061 16.779,15.223C15.941,14.383 15.52,13.214 15.629,12.031C15.632,12.001 15.633,11.97 15.633,11.939C15.633,11.425 15.235,10.99 14.723,10.943L11.918,10.689C11.885,10.686 11.852,10.685 11.818,10.686L11.818,10.686ZM19,12C19.564,12 20,12.436 20,13C20,13.564 19.564,14 19,14C18.436,14 18,13.564 18,13C18,12.436 18.436,12 19,12ZM12.592,12.76L13.768,12.865C13.882,14.268 14.351,15.624 15.361,16.637C15.362,16.637 15.363,16.637 15.363,16.637C16.375,17.648 17.731,18.12 19.135,18.236L19.242,19.41L10.375,21.625L12.592,12.76ZM5,16C4.451,16 4,16.451 4,17L4,27C4,27.549 4.451,28 5,28L15,28C15.549,28 16,27.549 16,27L16,26C16,25.451 15.549,25 15,25L7,25L7,17C7,16.451 6.549,16 6,16L5,16Z" style="fill:white;fill-rule:nonzero;"/>
    <path id="rect835" d="M5,17L5,27L15,27L15,26L6,26L6,17L5,17Z" style="fill-rule:nonzero;"/>
    <path id="rect835-6" d="M11.828,11.686L9,23L20.314,20.172L20.06,17.371C18.582,17.506 17.121,16.978 16.071,15.929C15.024,14.879 14.496,13.418 14.632,11.94L11.828,11.686Z" style="fill-rule:nonzero;"/>
    <circle id="circle839" cx="19" cy="13" r="2" style="fill:rgb(0,120,212);"/>
    <defs>
        <image id="_Image1" width="24px" height="24px" xlink:href="data:image/png;base64,iVBORw0KGgoAAAANSUhEUgAAABgAAAAYCAYAAADgdz34AAAACXBIWXMAAA7EAAAOxAGVKw4bAAABzklEQVRIiY2W63KrMAyEPy5JOz19/0dtytXnR3brBZIQzXhksKWV5JWh4T1pTt43QNG8xPypYUqrfdZ24jWPAiwxyjsALdABF+CqeQFWrXdAL70CI/ArvQClf+HcUV+BL42L1hxhH2MBbpFNAZYzgA74AL41rlrLEnXSc+hBej0D6AXwKd1HZnZswEYZumSgBzvzsLRat1EBJmrZ+ng/U5m0YVFGZOSG+4FlRMj5FI4M0IbNrLHouRigVxk+9ewN1wAYuR+iWWR6mlmmqQGKM2gV6Rf3g+zkbNyVYeJOwUlOXHsH9bDR9hn803yIcpl2s0AnPecBf1BZlw25OQM3k7m+htFMZYqNXY6ZLVkOAISha9pROe8MLsrS52IC+ICd5V/9EyDFUfds0y6xf38HDSrdTWU04AFgn0kTGuqdYyZl1w4CGJTFywzy1vyLRrJQe8KHPse7A02fZdBS+2GlXsNmk6Md9c77DjTdS94xyW/3Q14NzsaBHMRGa2wq1Muq3UWVjTey7YWH4s1LpO0PDBHV/guWDfXyo5XXwI8MJwFkeSwO5pe4888ATLebjA30KLI9PaczADtpd+NV6gbxuW1Y8wwg5+/8aZSdfir/AeB6wESBZP+rAAAAAElFTkSuQmCC"/>
    </defs>
</svg>
